shared/img/tn-moat.svg

<?xml version="1.0" encoding="UTF-8"?>
<svg width="13px" height="12px" viewBox="0 0 13 12" version="1.1" xmlns="http://www.w3.org/2000/svg" xmlns:xlink="http://www.w3.org/1999/xlink">
    <!-- Generator: sketchtool 47.1 (45422) - http://www.bohemiancoding.com/sketch -->
    <title>EA36787D-B838-4F9A-8764-7AB29C72082B</title>
    <desc>Created with sketchtool.</desc>
    <defs></defs>
    <g id="V4--RC-Updates" stroke="none" stroke-width="1" fill="none" fill-rule="evenodd">
        <g id="ASSETS--Pill-Icons" transform="translate(-181.000000, -322.000000)" fill-rule="nonzero" fill="#FFFFFF">
            <g id="moat" transform="translate(181.000000, 322.000000)">
                <path d="M12.2585185,8.21407407 C11.9214815,5.59481481 11.5860494,2.97555556 11.2522222,0.356296296 C11.2156383,0.233164103 11.1672663,0.113846506 11.1077778,-1.77635684e-15 C9.50925926,2.92259259 7.95888889,5.77777778 6.36037037,8.66666667 C4.81481481,5.74407407 3.29333333,2.88888889 1.7862963,0.0674074074 L1.64666667,0.115555556 C1.10259259,3.7362963 0.553703704,7.36185185 0,11.0740741 C0.206774619,11.0593323 0.414336492,11.0593323 0.621111111,11.0740741 C1.05444444,11.1414815 1.21814815,10.9488889 1.27592593,10.53 C1.50222222,8.93148148 1.75740741,7.33296296 1.99814815,5.71518519 C2.10407407,5.02185185 2.21481481,4.32851852 2.34481481,3.50518519 L6.34111111,11.102963 L10.4240741,3.53888889 C10.4722222,3.72185185 10.4962963,3.78925926 10.5059259,3.85666667 C10.7996296,6.0762963 11.1222222,8.29592593 11.3725926,10.5251852 C11.44,11.0740741 11.7288889,11.0740741 12.1140741,11.0740741 C12.4992593,11.0740741 12.6485185,10.9922222 12.5955556,10.5925926 C12.4414815,9.77888889 12.3596296,8.99407407 12.2585185,8.21407407 Z" id="Shape"></path>
            </g>
        </g>
    </g>
</svg>

<svg width="13" height="12" xmlns="http://www.w3.org/2000/svg"><path d="M12.259 8.214c-.338-2.62-.673-5.238-1.007-7.858A1.998 1.998 0 0 0 11.108 0C9.509 2.923 7.958 5.778 6.36 8.667a2346.443 2346.443 0 0 0-4.574-8.6l-.14.049C1.104 3.736.555 7.362 0 11.074c.207-.015.414-.015.621 0 .433.067.597-.125.655-.544.226-1.599.481-3.197.722-4.815.106-.693.217-1.386.347-2.21l3.996 7.598 4.083-7.564c.048.183.072.25.082.318.294 2.22.616 4.439.867 6.668.067.55.356.55.741.55s.535-.083.482-.482c-.155-.814-.236-1.599-.337-2.379z" fill-rule="nonzero" fill="#FFF"/></svg>
